X:1
T: Bortkomne sauen
C: Trad. Norwegian
K:Fm
M:4/4     %Meter
L:1/8     %
V:1 gchord=down
C2 |:"Fm"F3 G F2 =E2 |"C"C/=D/=E- =E4 F2 |"C7sus4"G3 F A2 GA/G/ |"Fm"F6 G2 |
A3 F A2 B2 |"Ab"c6-cB/A/ |"Eb"G3 F A2 B2 |"C7sus4"G6 "C7"G2 |
"Ab"A3 E A2 B2 |"Fm"c6-cB/A/ |"Eb"G3 F A3/2B/ A2 |"C     A7sus4"G6 C2 |
"Db"F3 G F2 =E2 |"C"C/=D/=E- =E4 F2 |"C7sus4"G3 F A2 GA/G/ ||1"Db"F/=E/F- "Csus4"F4 C2 :|2"Fm"F/=E/F- F4 |]

%Rude Mechanicals tune library: www.rudemex.co.uk
%Chords and arrangements by the Rude Mechanicals unless otherwise acknowledged
